X:1
T:The Green Forever -- Jig
R:jig
B:Ryan's Mammoth Collection
N: 90 469
Z: Contributed by Ray Davies,  ray:davies99.freeserve.co.uk
M:6/8
L:1/8
K:G
u(d/c/)|\
BGG "4"AGE | DGG "4"AGE | DGG "4"AGA | Bdd "4"edc |
BGG AGE | DGG AGE | DGG AGA | B(.G.G) G2 :|
|:uc|\
Bdd Acc | Bdd BGE | DGG "4"AGA | BAA ABc |
Bdd Acc | Bdd BGE | DGG "4"AGA | B(.G.G) G2 :|
